X:1
T:Title
%%score { ( 1 3 ) | ( 2 4 ) }
L:1/8
M:9/8
K:A
V:1 treble nm="Grand Piano"
V:3 treble 
V:2 bass 
V:4 bass 
V:1
 z3 z3 z2[Q:1/4=107] [CE] | [Ec]2 [^D=c] [E^c]3- [Ec]2 [=GA] | .B3 z3 z3 | %3
 [CE]2 [CA] [Ec]3- [Ec]2 [EA] | c3 B3- B2 E | [Ec]2 [^D=c] [E^c]3- [Ec]2 [=GA] | .B3 z3 z3 | %7
 [DF]2 [FA] c3- c2 A |[M:4/4] B3 [A,CA]- [A,CA]4 |[M:1/8] E |[M:9/8] B2 ^A B3- B2 d | %11
 FG[G,DF] [A,CE]3- [A,CE]2 [A,CE] | A,-[A,EA]c e3- e2 c | c3 B3- B2 E | %14
 [Ec]2 [^D=c] [E^c]3- [Ec]2 [=GA] | .F3 z3 z3 | [DF]2 [FA] c3- c2 A |[M:4/4] B3 [CA]- [CA]4 |] %18
V:2
 z3 z3 z2 [A,,A,] | [A,,A,]2 [A,,A,] [A,,A,]3- [A,,A,]2 [C,A,] | %2
 [D,A,]2 [D,A,D] [A,,A,]3- [A,,A,]2 [A,,A,] | [A,,A,]2 [A,,A,] [A,,A,]3- [A,,A,]2 [C,A,] | %4
 [E,G,E]3 [E,G,E]3- [E,G,E]2 [E,G,] | [A,,A,]2 [A,,A,] [A,,A,]3- [A,,A,]2 [C,A,] | %6
 [D,A,]2 [D,A,D] [A,,A,]3- [A,,A,]2 [A,,A,] | [D,A,]2 [D,A,] [E,A,E]3- [E,A,E]2 [E,A,C] | %8
[M:4/4] [E,G,D]3 A,,- A,,4 |[M:1/8] E, |[M:9/8] [E,G,D]2 [E,F,C] [E,G,D]3- [E,G,D]2 [E,G,D] | %11
 DEE, A,,3- A,,2 A,, | A,,C,[E,A,E] [A,CE]3- [A,CE]2 [A,E] | [E,A,E]3 [E,G,E]3- [E,G,E]2 [E,G,] | %14
 [A,,A,]2 [A,,A,] [A,,A,]3- [A,,A,]2 [C,A,] | [D,A,]2 [D,A,D] [A,,A,]3- [A,,A,]2 [A,,A,] | %16
 [D,A,]2 [D,A,] [E,A,E]3- [E,A,E]2 [E,A,C] |[M:4/4] [E,G,D]3 [A,,A,]- [A,,A,]4 |] %18
V:3
 x9 | x9 | F-[FA]F [CE]3- [CE]2 C | x9 | x9 | x9 | F-[FA]F [CE]3- [CE]2 [CE] | x9 |[M:4/4] x8 | %9
[M:1/8] x |[M:9/8] x9 | x9 | .[CE]3 z3 z3 | x9 | x9 | BAF [CE]3- [CE]2 [CE] | x9 |[M:4/4] x8 |] %18
V:4
 x9 | x9 | x9 | x9 | x9 | x9 | x9 | x9 |[M:4/4] x8 |[M:1/8] x |[M:9/8] x9 | .[E,G,]3 z3 z3 | x9 | %13
 x9 | x9 | x9 | x9 |[M:4/4] x8 |] %18

